src/components/CallToAction/images/handbook.svg

<svg xmlns="http://www.w3.org/2000/svg" width="20" height="20" fill="none" viewBox="0 0 20 20"><path fill="#72286E" d="M15.3503 1.07272H3.08789C2.74257 1.07272 2.46289 1.3524 2.46289 1.69772V18.3039C2.46289 18.4695 2.52851 18.6289 2.6457 18.7461C2.76289 18.8633 2.92226 18.9289 3.08788 18.9289H15.3503C16.5581 18.9273 17.5363 17.9492 17.5379 16.7413V3.26011C17.5363 2.05229 16.5582 1.07411 15.3503 1.07251L15.3503 1.07272ZM16.2878 16.7415C16.2878 17.2595 15.8682 17.679 15.3503 17.679H6.81909V2.32282H15.3503C15.8682 2.32282 16.2878 2.74236 16.2878 3.26032V16.7415ZM8.86359 6.49852C8.86359 6.1532 9.14327 5.87352 9.48859 5.87352H13.6168C13.9621 5.87352 14.2418 6.1532 14.2418 6.49852C14.2418 6.84384 13.9621 7.12352 13.6168 7.12352H9.48859C9.14327 7.12352 8.86359 6.84384 8.86359 6.49852ZM14.8386 8.94452H14.8394C14.8394 9.11092 14.773 9.26952 14.6558 9.3867C14.5386 9.50389 14.38 9.56951 14.2144 9.56951H8.89178C8.54646 9.56951 8.26678 9.28983 8.26678 8.94451C8.26678 8.59997 8.54646 8.31951 8.89178 8.31951H14.2144C14.38 8.31951 14.5386 8.38592 14.6558 8.5031C14.773 8.62029 14.8394 8.77888 14.8394 8.9445L14.8386 8.94452Z"/></svg>

<svg fill="none" viewBox="0 0 20 20"><path fill="#72286E" d="M15.35 1.073H3.088a.625.625 0 00-.625.625v16.606a.626.626 0 00.625.625H15.35a2.19 2.19 0 002.188-2.188V3.261a2.19 2.19 0 00-2.188-2.188zm.938 15.668c0 .518-.42.938-.938.938H6.82V2.323h8.53c.518 0 .938.42.938.937v13.481zM8.864 6.5c0-.346.28-.625.625-.625h4.128a.625.625 0 110 1.25H9.489a.625.625 0 01-.625-.625zm5.975 2.446a.625.625 0 01-.625.625H8.892a.625.625 0 110-1.25h5.322a.625.625 0 01.625.624z"/></svg>
